papers/haber.gv.svg

<?xml version="1.0" encoding="UTF-8" standalone="no"?>
<svg
   xmlns:dc="http://purl.org/dc/elements/1.1/"
   xmlns:cc="http://creativecommons.org/ns#"
   xmlns:rdf="http://www.w3.org/1999/02/22-rdf-syntax-ns#"
   xmlns:svg="http://www.w3.org/2000/svg"
   xmlns="http://www.w3.org/2000/svg"
   xmlns:sodipodi="http://sodipodi.sourceforge.net/DTD/sodipodi-0.dtd"
   xmlns:inkscape="http://www.inkscape.org/namespaces/inkscape"
   inkscape:version="1.0 (4035a4fb49, 2020-05-01)"
   sodipodi:docname="haber.gv.svg"
   id="svg110"
   version="1.1"
   viewBox="0.00 0.00 636.00 98.00"
   height="98pt"
   width="636pt">
  <metadata
     id="metadata116">
    <rdf:RDF>
      <cc:Work
         rdf:about="">
        <dc:format>image/svg+xml</dc:format>
        <dc:type
           rdf:resource="http://purl.org/dc/dcmitype/StillImage" />
      </cc:Work>
    </rdf:RDF>
  </metadata>
  <defs
     id="defs114" />
  <sodipodi:namedview
     inkscape:current-layer="node6"
     inkscape:window-maximized="1"
     inkscape:window-y="-9"
     inkscape:window-x="-9"
     inkscape:cy="65.333333"
     inkscape:cx="424"
     inkscape:zoom="1.5318396"
     showgrid="false"
     id="namedview112"
     inkscape:window-height="1001"
     inkscape:window-width="1920"
     inkscape:pageshadow="2"
     inkscape:pageopacity="0"
     guidetolerance="10"
     gridtolerance="10"
     objecttolerance="10"
     borderopacity="1"
     bordercolor="#666666"
     pagecolor="#ffffff" />
  <polygon
     transform="translate(4,94)"
     fill="#ffffff"
     stroke="transparent"
     points="632,-94 632,4 -4,4 -4,-94 "
     id="polygon4" />
  <g
     transform="translate(4,94)"
     id="node1"
     class="node">
    <title
       id="title6">N2</title>
    <text
       text-anchor="middle"
       x="297.5"
       y="-14.3"
       font-family="Times, serif"
       font-size="14px"
       id="text8">Nitrogen</text>
  </g>
  <g
     transform="translate(4,94)"
     id="node6"
     class="node">
    <title
       id="title11">HP</title>
    <polygon
       fill="none"
       stroke="#ff0000"
       points="439,-18.5 537,-18.5 537,-71.5 439,-71.5 "
       id="polygon13" />
    <text
       text-anchor="middle"
       x="488"
       y="-56.299999"
       font-family="Times, serif"
       font-size="14px"
       id="text15">Haber Process</text>
    <text
       text-anchor="middle"
       x="488"
       y="-41.299999"
       font-family="Times, serif"
       font-size="14px"
       id="text17">T=673-773 K</text>
    <text
       text-anchor="middle"
       x="488"
       y="-26.299999"
       font-family="Times, serif"
       font-size="14px"
       id="text19">P=150-250 bar</text>
  </g>
  <g
     transform="translate(4,94)"
     id="edge1"
     class="edge">
    <title
       id="title22">N2-&gt;HP</title>
    <path
       fill="none"
       stroke="#000000"
       d="m 330.09,-20.45 c 24.81,-2.14 60.18,-5.67 90.91,-10.55 2.53,-0.4 5.11,-0.84 7.71,-1.3"
       id="path24" />
    <polygon
       fill="#000000"
       stroke="#000000"
       points="429.62,-28.9 428.33,-35.79 438.81,-34.18 "
       id="polygon26" />
    <text
       text-anchor="middle"
       x="386"
       y="-34.799999"
       font-family="Times, serif"
       font-size="14px"
       id="text28">compression</text>
  </g>
  <g
     transform="translate(4,94)"
     id="node2"
     class="node">
    <title
       id="title31">H2</title>
    <text
       text-anchor="middle"
       x="297.5"
       y="-68.300003"
       font-family="Times, serif"
       font-size="14px"
       fill="#008000"
       id="text33">Hydrogen</text>
  </g>
  <g
     transform="translate(4,94)"
     id="edge2"
     class="edge">
    <title
       id="title36">H2-&gt;HP</title>
    <path
       fill="none"
       stroke="#000000"
       d="m 333.07,-67.05 c 26.76,3.83 64.42,9.23 95.79,13.72"
       id="path38" />
    <polygon
       fill="#000000"
       stroke="#000000"
       points="428.41,-49.86 429.4,-56.79 438.8,-51.9 "
       id="polygon40" />
    <text
       text-anchor="middle"
       x="386"
       y="-67.800003"
       font-family="Times, serif"
       font-size="14px"
       id="text42">compression</text>
  </g>
  <g
     transform="translate(4,94)"
     id="node3"
     class="node">
    <title
       id="title45">Air</title>
    <text
       text-anchor="middle"
       x="27"
       y="-14.3"
       font-family="Times, serif"
       font-size="14px"
       id="text47">Air</text>
  </g>
  <polygon
     transform="translate(4,94)"
     id="polygon52"
     points="225,-36 91,-36 91,0 225,0 "
     stroke="#000000"
     fill="none" />
  <text
     style="stroke-width:0.786308"
     id="text54"
     font-size="11.0083px"
     font-family="Times, serif"
     y="79.875046"
     x="160.07881"
     text-anchor="middle">Cryogenic distillation</text>
  <g
     transform="translate(4,94)"
     id="edge4"
     class="edge">
    <title
       id="title57">Air-&gt;CD</title>
    <path
       fill="none"
       stroke="#000000"
       d="m 54.11,-18 c 7.97,0 17.18,0 26.75,0"
       id="path59" />
    <polygon
       fill="#000000"
       stroke="#000000"
       points="80.91,-14.5 80.91,-21.5 90.91,-18 "
       id="polygon61" />
  </g>
  <g
     transform="translate(4,94)"
     id="node4"
     class="node">
    <title
       id="title64">NH3</title>
    <text
       text-anchor="middle"
       x="601"
       y="-41.299999"
       font-family="Times, serif"
       font-size="14px"
       id="text66">NH3</text>
  </g>
  <g
     transform="translate(4,94)"
     id="node5"
     class="node">
    <title
       id="title69">Water</title>
    <text
       text-anchor="middle"
       x="27"
       y="-68.300003"
       font-family="Times, serif"
       font-size="14px"
       id="text71">Water</text>
  </g>
  <g
     transform="translate(4,94)"
     id="node8"
     class="node">
    <title
       id="title74">Electrolysis</title>
    <polygon
       fill="none"
       stroke="#000000"
       points="118,-54 198,-54 198,-90 118,-90 "
       id="polygon76" />
    <text
       text-anchor="middle"
       x="158"
       y="-68.300003"
       font-family="Times, serif"
       font-size="14px"
       id="text78">Electrolysis</text>
  </g>
  <g
     transform="translate(4,94)"
     id="edge6"
     class="edge">
    <title
       id="title81">Water-&gt;Electrolysis</title>
    <path
       fill="none"
       stroke="#000000"
       d="m 54.11,-72 c 15.33,0 35.21,0 53.41,0"
       id="path83" />
    <polygon
       fill="#000000"
       stroke="#000000"
       points="107.7,-68.5 107.7,-75.5 117.7,-72 "
       id="polygon85" />
  </g>
  <g
     transform="translate(4,94)"
     id="edge3"
     class="edge">
    <title
       id="title88">HP-&gt;NH3</title>
    <path
       fill="none"
       stroke="#000000"
       d="m 537.04,-45 c 9,0 18.26,0 26.82,0"
       id="path90" />
    <polygon
       fill="#000000"
       stroke="#000000"
       points="563.89,-41.5 563.89,-48.5 573.89,-45 "
       id="polygon92" />
  </g>
  <g
     transform="translate(4,94)"
     id="edge5"
     class="edge">
    <title
       id="title95">CD-&gt;N2</title>
    <path
       fill="none"
       stroke="#000000"
       d="m 225.33,-18 c 9.98,0 20.03,0 29.3,0"
       id="path97" />
    <polygon
       fill="#000000"
       stroke="#000000"
       points="254.73,-14.5 254.73,-21.5 264.73,-18 "
       id="polygon99" />
  </g>
  <g
     transform="translate(4,94)"
     id="edge7"
     class="edge">
    <title
       id="title102">Electrolysis-&gt;H2</title>
    <path
       fill="none"
       stroke="#000000"
       d="m 198.03,-72 c 16.57,0 35.99,0 53.19,0"
       id="path104" />
    <polygon
       fill="#000000"
       stroke="#000000"
       points="251.59,-68.5 251.59,-75.5 261.59,-72 "
       id="polygon106" />
  </g>
</svg>

<?xml version="1.0" encoding="UTF-8" standalone="no"?>
<!DOCTYPE svg PUBLIC "-//W3C//DTD SVG 1.1//EN"
 "http://www.w3.org/Graphics/SVG/1.1/DTD/svg11.dtd">
<!-- Generated by graphviz version 2.42.3 (20191010.1750)
 -->
<!-- Title: Process flow diagram Pages: 1 -->
<svg width="636pt" height="98pt"
 viewBox="0.00 0.00 636.00 98.00" xmlns="http://www.w3.org/2000/svg" xmlns:xlink="http://www.w3.org/1999/xlink">
<g id="graph0" class="graph" transform="scale(1 1) rotate(0) translate(4 94)">
<title>Process flow diagram</title>
<polygon fill="white" stroke="transparent" points="-4,4 -4,-94 632,-94 632,4 -4,4"/>
<!-- N2 -->
<g id="node1" class="node">
<title>N2</title>
<text text-anchor="middle" x="297.5" y="-14.3" font-family="Times,serif" font-size="14.00">Nitrogen</text>
</g>
<!-- HP -->
<g id="node6" class="node">
<title>HP</title>
<polygon fill="none" stroke="red" points="537,-71.5 439,-71.5 439,-18.5 537,-18.5 537,-71.5"/>
<text text-anchor="middle" x="488" y="-56.3" font-family="Times,serif" font-size="14.00">Haber Process</text>
<text text-anchor="middle" x="488" y="-41.3" font-family="Times,serif" font-size="14.00">T=673&#45;773 K</text>
<text text-anchor="middle" x="488" y="-26.3" font-family="Times,serif" font-size="14.00">P=150&#45;250 bar</text>
</g>
<!-- N2&#45;&gt;HP -->
<g id="edge1" class="edge">
<title>N2&#45;&gt;HP</title>
<path fill="none" stroke="black" d="M330.09,-20.45C354.9,-22.59 390.27,-26.12 421,-31 423.53,-31.4 426.11,-31.84 428.71,-32.3"/>
<polygon fill="black" stroke="black" points="428.33,-35.79 438.81,-34.18 429.62,-28.9 428.33,-35.79"/>
<text text-anchor="middle" x="386" y="-34.8" font-family="Times,serif" font-size="14.00">compression</text>
</g>
<!-- H2 -->
<g id="node2" class="node">
<title>H2</title>
<text text-anchor="middle" x="297.5" y="-68.3" font-family="Times,serif" font-size="14.00" fill="green">Hydrogen</text>
</g>
<!-- H2&#45;&gt;HP -->
<g id="edge2" class="edge">
<title>H2&#45;&gt;HP</title>
<path fill="none" stroke="black" d="M333.07,-67.05C359.83,-63.22 397.49,-57.82 428.86,-53.33"/>
<polygon fill="black" stroke="black" points="429.4,-56.79 438.8,-51.9 428.41,-49.86 429.4,-56.79"/>
<text text-anchor="middle" x="386" y="-67.8" font-family="Times,serif" font-size="14.00">compression</text>
</g>
<!-- Air -->
<g id="node3" class="node">
<title>Air</title>
<text text-anchor="middle" x="27" y="-14.3" font-family="Times,serif" font-size="14.00">Air</text>
</g>
<!-- CD -->
<g id="node7" class="node">
<title>CD</title>
<polygon fill="none" stroke="black" points="225,-36 91,-36 91,0 225,0 225,-36"/>
<text text-anchor="middle" x="158" y="-14.3" font-family="Times,serif" font-size="14.00">Cryogenic distillation</text>
</g>
<!-- Air&#45;&gt;CD -->
<g id="edge4" class="edge">
<title>Air&#45;&gt;CD</title>
<path fill="none" stroke="black" d="M54.11,-18C62.08,-18 71.29,-18 80.86,-18"/>
<polygon fill="black" stroke="black" points="80.91,-21.5 90.91,-18 80.91,-14.5 80.91,-21.5"/>
</g>
<!-- NH3 -->
<g id="node4" class="node">
<title>NH3</title>
<text text-anchor="middle" x="601" y="-41.3" font-family="Times,serif" font-size="14.00">NH3</text>
</g>
<!-- Water -->
<g id="node5" class="node">
<title>Water</title>
<text text-anchor="middle" x="27" y="-68.3" font-family="Times,serif" font-size="14.00">Water</text>
</g>
<!-- Electrolysis -->
<g id="node8" class="node">
<title>Electrolysis</title>
<polygon fill="none" stroke="black" points="198,-90 118,-90 118,-54 198,-54 198,-90"/>
<text text-anchor="middle" x="158" y="-68.3" font-family="Times,serif" font-size="14.00">Electrolysis</text>
</g>
<!-- Water&#45;&gt;Electrolysis -->
<g id="edge6" class="edge">
<title>Water&#45;&gt;Electrolysis</title>
<path fill="none" stroke="black" d="M54.11,-72C69.44,-72 89.32,-72 107.52,-72"/>
<polygon fill="black" stroke="black" points="107.7,-75.5 117.7,-72 107.7,-68.5 107.7,-75.5"/>
</g>
<!-- HP&#45;&gt;NH3 -->
<g id="edge3" class="edge">
<title>HP&#45;&gt;NH3</title>
<path fill="none" stroke="black" d="M537.04,-45C546.04,-45 555.3,-45 563.86,-45"/>
<polygon fill="black" stroke="black" points="563.89,-48.5 573.89,-45 563.89,-41.5 563.89,-48.5"/>
</g>
<!-- CD&#45;&gt;N2 -->
<g id="edge5" class="edge">
<title>CD&#45;&gt;N2</title>
<path fill="none" stroke="black" d="M225.33,-18C235.31,-18 245.36,-18 254.63,-18"/>
<polygon fill="black" stroke="black" points="254.73,-21.5 264.73,-18 254.73,-14.5 254.73,-21.5"/>
</g>
<!-- Electrolysis&#45;&gt;H2 -->
<g id="edge7" class="edge">
<title>Electrolysis&#45;&gt;H2</title>
<path fill="none" stroke="black" d="M198.03,-72C214.6,-72 234.02,-72 251.22,-72"/>
<polygon fill="black" stroke="black" points="251.59,-75.5 261.59,-72 251.59,-68.5 251.59,-75.5"/>
</g>
</g>
</svg>
